svg/fluentui-system-icons/ic_fluent_square_hint_sparkles_28_regular.svg

<svg width="28" height="28" viewBox="0 0 28 28" fill="none" xmlns="http://www.w3.org/2000/svg">
<path d="M18.171 6.82854C18.2641 6.922 18.3511 7.02096 18.4314 7.12476C18.6502 7.40738 18.8198 7.7259 18.9322 8.06707L19.4297 9.59678C19.4714 9.71469 19.5486 9.81678 19.6507 9.889C19.7528 9.96122 19.8749 10 20 10C20.1251 10 20.2472 9.96122 20.3493 9.889C20.4404 9.82457 20.5117 9.73636 20.5556 9.63437C20.5609 9.62204 20.5658 9.6095 20.5703 9.59678L21.0678 8.06707C21.2225 7.60201 21.4836 7.17942 21.8304 6.83287C22.1773 6.48633 22.6002 6.22539 23.0656 6.0708L24.5965 5.57364C24.7145 5.53205 24.8166 5.45491 24.8889 5.35285C24.9612 5.25079 25 5.12885 25 5.00382C25 4.8788 24.9612 4.75686 24.8889 4.6548C24.8166 4.55274 24.7145 4.4756 24.5965 4.43401L24.5659 4.42636L23.035 3.9292C22.5696 3.77461 22.1466 3.51367 21.7998 3.16713C21.453 2.82059 21.1919 2.39799 21.0372 1.93293L20.5396 0.403216C20.498 0.285313 20.4208 0.183217 20.3187 0.110999C20.2165 0.0387817 20.0945 0 19.9694 0C19.8443 0 19.7222 0.0387817 19.6201 0.110999C19.518 0.183217 19.4408 0.285313 19.3991 0.403216L18.9016 1.93293L18.8889 1.9708C18.7358 2.41772 18.4841 2.82471 18.1522 3.16153C17.811 3.50784 17.3942 3.77058 16.9344 3.9292L15.4035 4.42636C15.2855 4.46795 15.1834 4.54509 15.1111 4.64715C15.0388 4.74921 15 4.87115 15 4.99618C15 5.1212 15.0388 5.24314 15.1111 5.3452C15.1834 5.44726 15.2855 5.5244 15.4035 5.56599L16.9344 6.06315C17.4006 6.21851 17.8241 6.48062 18.171 6.82854ZM26.821 10.3575L27.7395 10.6558L27.7579 10.6604C27.8287 10.6854 27.89 10.7316 27.9333 10.7929C27.9767 10.8541 28 10.9273 28 11.0023C28 11.0773 27.9767 11.1505 27.9333 11.2117C27.89 11.2729 27.8287 11.3192 27.7579 11.3442L26.8394 11.6425C26.5601 11.7352 26.3064 11.8918 26.0983 12.0997C25.8902 12.3077 25.7335 12.5612 25.6407 12.8402L25.3422 13.7581C25.3172 13.8288 25.2709 13.8901 25.2096 13.9334C25.1483 13.9767 25.0751 14 25 14C24.9249 14 24.8517 13.9767 24.7904 13.9334C24.7291 13.8901 24.6828 13.8288 24.6578 13.7581L24.3593 12.8402C24.2671 12.5604 24.1107 12.3059 23.9026 12.0971C23.6945 11.8884 23.4404 11.7311 23.1606 11.6379L22.2421 11.3396C22.1713 11.3146 22.11 11.2684 22.0667 11.2071C22.0233 11.1459 22 11.0727 22 10.9977C22 10.9227 22.0233 10.8495 22.0667 10.7883C22.11 10.7271 22.1713 10.6808 22.2421 10.6558L23.1606 10.3575C23.4365 10.2623 23.6866 10.1047 23.8913 9.89692C24.0961 9.68913 24.25 9.43684 24.341 9.15976L24.6395 8.24193C24.6645 8.17119 24.7108 8.10993 24.7721 8.0666C24.8333 8.02327 24.9066 8 24.9816 8C25.0567 8 25.1299 8.02327 25.1912 8.0666C25.2525 8.10993 25.2988 8.17119 25.3238 8.24193L25.6223 9.15976C25.7151 9.43879 25.8718 9.69235 26.0799 9.90028C26.288 10.1082 26.5417 10.2648 26.821 10.3575ZM15.0891 3.4995L16.185 3.13899C16.0623 3.05148 15.9122 3 15.75 3H12.25C11.8358 3 11.5 3.33579 11.5 3.75C11.5 4.16421 11.8358 4.5 12.25 4.5H14.0861C14.1363 4.35434 14.2078 4.21592 14.2991 4.0895C14.4922 3.8131 14.7692 3.60623 15.0891 3.4995ZM11.5 24.25C11.5 23.8358 11.8358 23.5 12.25 23.5H15.75C16.1642 23.5 16.5 23.8358 16.5 24.25C16.5 24.6642 16.1642 25 15.75 25H12.25C11.8358 25 11.5 24.6642 11.5 24.25ZM3 15.75C3 16.1642 3.33579 16.5 3.75 16.5C4.16421 16.5 4.5 16.1642 4.5 15.75L4.5 12.25C4.5 11.8358 4.16421 11.5 3.75 11.5C3.33579 11.5 3 11.8358 3 12.25V15.75ZM20 24.25C20 24.6642 20.3358 25 20.75 25H21.25C23.3211 25 25 23.3211 25 21.25V20.75C25 20.3358 24.6642 20 24.25 20C23.8358 20 23.5 20.3358 23.5 20.75V21.25C23.5 22.4926 22.4926 23.5 21.25 23.5H20.75C20.3358 23.5 20 23.8358 20 24.25ZM7.25 3C7.66421 3 8 3.33579 8 3.75C8 4.16421 7.66421 4.5 7.25 4.5H6.75C5.50736 4.5 4.5 5.50736 4.5 6.75V7.25C4.5 7.66421 4.16421 8 3.75 8C3.33579 8 3 7.66421 3 7.25V6.75C3 4.67893 4.67893 3 6.75 3H7.25ZM8 24.25C8 24.6642 7.66421 25 7.25 25H6.75C4.67893 25 3 23.3211 3 21.25V20.75C3 20.3358 3.33579 20 3.75 20C4.16421 20 4.5 20.3358 4.5 20.75V21.25C4.5 22.4926 5.50736 23.5 6.75 23.5H7.25C7.66421 23.5 8 23.8358 8 24.25Z" fill="#212121"/>
</svg>

<svg xmlns="http://www.w3.org/2000/svg" width="28" height="28"><path d="M18.171 6.829a3.157 3.157 0 0 1 .761 1.238l.498 1.53a.605.605 0 0 0 1.14 0l.498-1.53a3.15 3.15 0 0 1 1.998-1.996l1.53-.497a.605.605 0 0 0 0-1.14l-.03-.008-1.531-.497a3.154 3.154 0 0 1-1.998-1.996L20.54.403a.604.604 0 0 0-1.14 0l-.498 1.53-.013.038a3.152 3.152 0 0 1-1.955 1.958l-1.53.497a.605.605 0 0 0 0 1.14l1.53.497c.467.156.89.418 1.237.766Zm8.65 3.529.918.298.019.004a.362.362 0 0 1 0 .684l-.919.299a1.892 1.892 0 0 0-1.198 1.197l-.299.918a.363.363 0 0 1-.684 0l-.299-.918a1.891 1.891 0 0 0-1.198-1.202l-.919-.298a.362.362 0 0 1 0-.684l.919-.299a1.892 1.892 0 0 0 1.18-1.197l.299-.918a.363.363 0 0 1 .684 0l.298.918a1.89 1.89 0 0 0 1.199 1.197Zm-11.732-6.86 1.096-.36A.746.746 0 0 0 15.75 3h-3.5a.75.75 0 0 0 0 1.5h1.836a1.58 1.58 0 0 1 .213-.41 1.57 1.57 0 0 1 .79-.59ZM11.5 24.25a.75.75 0 0 1 .75-.75h3.5a.75.75 0 0 1 0 1.5h-3.5a.75.75 0 0 1-.75-.75ZM3 15.75a.75.75 0 0 0 1.5 0v-3.5a.75.75 0 0 0-1.5 0v3.5Zm17 8.5c0 .414.336.75.75.75h.5A3.75 3.75 0 0 0 25 21.25v-.5a.75.75 0 0 0-1.5 0v.5a2.25 2.25 0 0 1-2.25 2.25h-.5a.75.75 0 0 0-.75.75ZM7.25 3a.75.75 0 0 1 0 1.5h-.5A2.25 2.25 0 0 0 4.5 6.75v.5a.75.75 0 0 1-1.5 0v-.5A3.75 3.75 0 0 1 6.75 3h.5ZM8 24.25a.75.75 0 0 1-.75.75h-.5A3.75 3.75 0 0 1 3 21.25v-.5a.75.75 0 0 1 1.5 0v.5a2.25 2.25 0 0 0 2.25 2.25h.5a.75.75 0 0 1 .75.75Z"/></svg>
